proprietary/assets/icons/vervoersmiddelen/scootmobiel.svg

<svg height="64" viewBox="0 0 64 64" width="64" xmlns="http://www.w3.org/2000/svg"><path d="m0 0h64v64h-64z" fill="none"/><path d="m46.4156 50.77c.9217 2.4687 3.2943 4.23 6.0844 4.23 3.5898 0 6.5-2.9102 6.5-6.5 0-1.1473-.2998-2.2234-.8215-3.1591z"/><path d="m14.5 40c-4.1422 0-7.5 3.3578-7.5 7.5s3.3578 7.5 7.5 7.5 7.5-3.3578 7.5-7.5-3.3578-7.5-7.5-7.5zm0 11c-1.933 0-3.5-1.567-3.5-3.5s1.567-3.5 3.5-3.5 3.5 1.567 3.5 3.5-1.567 3.5-3.5 3.5z"/><path d="m51.6857 28h2.9808c1.2865 0 2.3965-.9026 2.6589-2.162l2.6746-12.838h-8.8405c.8686 3.1323 1.4329 7.9493.5262 15z"/><path d="m61.9726 40.6641c-.16-.9834-1.0834-1.6641-2.0797-1.6641h-1.8929c-4.5-7.1-13.7-6.9-13.7-6.9l-2.7 12.9h-12.6v-12.1472c-1.2007-.1807-4.8203-.7407-8.5579-1.47-.3203-.0625-.2812-.2969-.2443-.3828h8.8022s3-3.69 1.6-6.59-12.6-.41-12.6-.41c-.2915-1.8809-.6176-3.5344-.9674-5h7.4756c.8239 0 1.4918-.6679 1.4918-1.4918v-.0164c0-.8239-.6679-1.4918-1.4918-1.4918h-8.3044c-2.0016-6.2158-4.4971-7.6154-6.207-7.8829-1.049-.1642-1.9558.7541-1.8639 1.8119l1.6354 18.4067c.1311 1.5074 1.3972 2.7774 2.9102 2.7774-6.0242.7759-10.6785 5.9122-10.6785 12.1476v.814c0 1.6156 1.3097 2.9253 2.9253 2.9253.2754-5.3317 4.8871-9.5167 10.3832-9.0668 5.0284.4116 8.7915 4.8301 8.7915 9.8754v1.1914h20.9l13-6h2c1.2147 0 2.1765-1.0829 1.9726-2.3359z"/><path d="m37 16h3.2516c3.0377 5.6995 4.1564 12.1592 4.312 13.9036.6737.0116 2.3815.0916 4.5188.6061 2.1958-12.7952-.3804-18.5811-1.4644-20.3466-.2316-.3771-.6854-.5643-1.1108-.4426-3.5114 1.0045-5.7016 3.1145-6.6949 4.2795h-2.8123c-.5523 0-1 .4477-1 1s.4477 1 1 1z"/></svg>

<?xml version="1.0" encoding="utf-8"?>
<!-- Generator: Adobe Illustrator 19.1.0, SVG Export Plug-In . SVG Version: 6.00 Build 0)  -->
<svg version="1.2" baseProfile="tiny" xmlns="http://www.w3.org/2000/svg" xmlns:xlink="http://www.w3.org/1999/xlink" x="0px"
	 y="0px" width="64px" height="64px" viewBox="0 0 64 64" xml:space="preserve">
<g id="Box">
	<rect fill="none" width="64" height="64"/>
</g>
<g id="Icon">
	<g>
		<path d="M46.4156,50.77C47.3373,53.2387,49.7099,55,52.5,55c3.5898,0,6.5-2.9102,6.5-6.5c0-1.1473-0.2998-2.2234-0.8215-3.1591
			L46.4156,50.77z"/>
		<path d="M14.5,40C10.3578,40,7,43.3578,7,47.5s3.3578,7.5,7.5,7.5s7.5-3.3578,7.5-7.5S18.6422,40,14.5,40z M14.5,51
			c-1.933,0-3.5-1.567-3.5-3.5s1.567-3.5,3.5-3.5s3.5,1.567,3.5,3.5S16.433,51,14.5,51z"/>
		<path d="M51.6857,28h2.9808c1.2865,0,2.3965-0.9026,2.6589-2.162L60,13h-8.8405C52.0281,16.1323,52.5924,20.9493,51.6857,28z"/>
		<path d="M61.9726,40.6641C61.8126,39.6807,60.8892,39,59.8929,39H58c-4.5-7.1-13.7-6.9-13.7-6.9L41.6,45H29V32.8528
			c-1.2007-0.1807-4.8203-0.7407-8.5579-1.47c-0.3203-0.0625-0.2812-0.2969-0.2443-0.3828H29c0,0,3-3.69,1.6-6.59
			C29.2,21.51,18,24,18,24c-0.2915-1.8809-0.6176-3.5344-0.9674-5h7.4756C25.3321,19,26,18.3321,26,17.5082v-0.0164
			C26,16.6679,25.3321,16,24.5082,16h-8.3044c-2.0016-6.2158-4.4971-7.6154-6.207-7.8829C8.9478,7.9529,8.041,8.8712,8.1329,9.929
			l1.6354,18.4067c0.1311,1.5074,1.3972,2.7774,2.9102,2.7774C6.6543,31.889,2,37.0253,2,43.2607v0.814
			C2,45.6903,3.3097,47,4.9253,47c0.2754-5.3317,4.8871-9.5167,10.3832-9.0668c5.0284,0.4116,8.7915,4.8301,8.7915,9.8754V49H45
			l13-6h2C61.2147,43,62.1765,41.9171,61.9726,40.6641z"/>
		<path d="M37,16h3.2516c3.0377,5.6995,4.1564,12.1592,4.312,13.9036c0.6737,0.0116,2.3815,0.0916,4.5188,0.6061
			c2.1958-12.7952-0.3804-18.5811-1.4644-20.3466c-0.2316-0.3771-0.6854-0.5643-1.1108-0.4426
			C42.9958,10.725,40.8056,12.835,39.8123,14H37c-0.5523,0-1,0.4477-1,1S36.4477,16,37,16z"/>
	</g>
</g>
</svg>
